X: 175
T: No_97_Song_of_the_Deer_Dancing.krn
%%abc-version 2.0
%%abcx-abcm2ps-target-version 5.9.1 (29 Sep 2008)
%%abc-creator hum2abc beta
%%abcx-conversion-date 2020/08/10 18:54:57
%%gracespace 0 6 6
%%humdrum-veritas 3432560779
%%humdrum-veritas-data 3777980
%%linebreak <none>
%%barnumbers 0
L: 1/8
M: 2/4
%%staves {1 2}
V: 1 clef=bass
V: 2 clef=bass
K: D
[V:1] [K:clef=bass][M:2/4]B,B, B,B, ||  
[V:2] [K:clef=bass][M:2/4](3!accent!G,, z G,, (3!accent!G,, z G,, ||  
[V:1] [M:3/4]DDB,2A,A, ||  
[V:2] [M:3/4]z6 ||  
[V:1] [M:2/4]F,4 | 
[V:2] [M:2/4]z4 | 
[V:1] B,B, A,F, ||  
[V:2] z4 ||  
[V:1] [M:3/4]B,F,E,2D,D, ||  
[V:2] [M:3/4]z6 ||  
[V:1] [M:2/4]B,,4- | 
[V:2] [M:2/4]z4 | 
[V:1] B,,2D,D, ||  
[V:2] z4 ||  
[V:1] [M:3/4]B,,6- ||  
[V:2] [M:3/4]z6 ||  
[V:1] [M:2/4]B,,2D,D, ||  
[V:2] [M:2/4]z4 ||  
[V:1] [M:3/4]B,,6- ||  
[V:2] [M:3/4]z6 ||  
[V:1] [M:2/4]B,,4 |]  
[V:2] [M:2/4]z4 |]  


